X: 05034
T: HARRY'S JIG
C: Bob McQuillen Aug'80
B: Bob's Note Book 5 #34
%R: jig
Z: 2021 John Chambers <jc:trillian.mit.edu>
M: 6/8
L: 1/8
K: Am
E \
| G2A Gcd | e2d c2d | ecA GEG | A2G E2E |\
| A2G A2B | c2d ecA | GAG E2G | AAA A2 :|
|: e \
| g2a geg | a2g e2d | ega geg | a2g e2d |\
| cde dcd | ega ged | cdc B2G | A3  A2 :|
%%begintext align
%% Harry Nelson
%% over in Francestown has helped keep
%% the dancing going for years, so here's
%% your tune to dance to, Harry -
%%endtext

%%sep 1 1 500

%%sep 1 1 500

